X:1
T:Rock Andy
T:I'll Learn You how to Rock Andy
S:Owen "Snake" Chapman (1919-2002, Canada, Pike County, 
N:eastern Kentucky)
M:C|
L:1/8
D:Rounder 0378, Owen Chapman - "Up in Chapman's Hollow" (1975)
Z:Transcribed by Andy Kuntz
K:Amix
ea-ab a3b|a2g2 e4|eg-ga g2g2|(g/a/g) e2 d4|
ea-ab a2a2|gage d2[e2e2]-|[e2e2]ge d=cAB|1 A3B A4:|2 A3B A2 [A2A2]-||
|:[A2A2]AA cAcd|efe2 d2 dB|[M:2/4]G2G2|[M:C|]BGAG BGAG|
E2 !slide![A4A4]AB|cAcd efe2|[M:2/4]d2cd|[M:C|]e2g2 edBB|A3B A4:|]